symbols/sources/transport/bicycle_parking.svg

<?xml version="1.0" encoding="UTF-8" standalone="no"?>
<!-- Created with Inkscape (http://www.inkscape.org/) -->

<svg
   xmlns:dc="http://purl.org/dc/elements/1.1/"
   xmlns:cc="http://creativecommons.org/ns#"
   xmlns:rdf="http://www.w3.org/1999/02/22-rdf-syntax-ns#"
   xmlns:svg="http://www.w3.org/2000/svg"
   xmlns="http://www.w3.org/2000/svg"
   version="1.1"
   width="14"
   height="14"
   viewBox="0 0 14 14"
   id="svg2">
  <rect
     width="14"
     height="14"
     x="0"
     y="0"
     id="canvas"
     style="fill:none;stroke:none;visibility:hidden" />
  <path
     d="m 0,0 0,10 2.000077,0 0,-3.5 2.500097,0 c 1.976154,3e-7 3.500135,-1 3.500135,-3.25 C 8.000309,1 6.4871,2e-7 4.968942,0 z m 2.000077,2 2.500097,0 c 0.963608,0 1.500058,0.5254308 1.500058,1.25 0,0.7245692 -0.631804,1.25 -1.500058,1.25 l -2.500097,0 z M 9,7 9,7.5938559 9.500367,8 l 0,0.75 -3.000116,0 0,-0.25 0.50002,0 c 0.479412,0 0.455442,-0.5 0,-0.5 L 5.500213,8 c -0.50002,0 -0.50002,0.452061 0,0.5 l 0.500019,0 0,0.25 -0.562522,1.28125 C 5.296384,10.001436 5.147956,10 5.000193,10 c -1.02182,0 -2.000077,0.793929 -2.000077,2 0,1.206071 0.978257,2 2.000077,2 1.02182,0 1.937575,-0.856429 1.937575,-2.0625 0,-0.150759 -0.0039,-0.302075 -0.03125,-0.4375 l 0.843783,0 1.821945,-2 0.365639,0.78125 C 9.383285,10.615837 9.000348,11.229684 9.000348,12 c 0,1.206071 0.978257,2 2.000077,2 C 12.022246,14 12.938,13.143571 12.938,11.9375 12.938,10.731429 12.022246,10 11.000425,10 c -0.15008,0 -0.292278,0.02946 -0.437517,0.0625 L 10.000386,8.75 10,7.8 z m -2.593502,2.5 2.193834,0 -1.193796,1.25 -0.843782,0 C 6.422636,10.56342 6.258266,10.401358 6.062734,10.28125 z M 5.000193,11 c 0.635098,0 1.000039,0.549217 1.000039,1 0,0.450783 -0.364941,1 -1.000039,1 -0.635098,0 -1.000038,-0.549217 -1.000038,-1 0,-0.450783 0.36494,-1 1.000038,-1 z m 6.000232,0 c 0.635099,0 1.000039,0.549217 1.000039,1 0,0.450783 -0.36494,1 -1.000039,1 -0.635098,0 -1.000039,-0.549217 -1.000039,-1 0,-0.450783 0.364941,-1 1.000039,-1 z"
     id="parking-bicycle" style="fill:#000000" />
</svg>

<?xml version="1.0" encoding="UTF-8" standalone="no"?>
<svg
   version="1.1"
   width="14"
   height="14"
   viewBox="0 0 14 14"
   id="svg2"
   xmlns="http://www.w3.org/2000/svg"
   xmlns:svg="http://www.w3.org/2000/svg">
  <defs
     id="defs1" />
  <rect
     width="14"
     height="14"
     x="0"
     y="0"
     id="canvas"
     style="fill:none;stroke:none;visibility:hidden" />
  <path
     id="parking-bicycle"
     style="fill:#000000"
     d="M 0,1 V 11 H 2 V 7 h 2.38086 c 3.5045,-0.02378 3.5045,-6 0,-6 z M 2,3 H 4 C 5.25,3 5.25,5 4,5 H 2 Z M 9,7 V 7.59375 L 9.5,8 v 0.75 h -3 V 8.5 H 7 C 7.47941,8.5 7.45544,8 7,8 H 5.5 C 4.99998,8 4.99998,8.452061 5.5,8.5 H 6 V 8.75 L 5.4375,10.03125 C 5.29617,10.001436 5.14777,10 5,10 c -1.02182,0 -2,0.793931 -2,2 0,1.206069 0.97818,2 2,2 1.02182,0 1.9375,-0.856431 1.9375,-2.0625 0,-0.150759 -0.004,-0.302075 -0.0312,-0.4375 H 7.75 l 1.82227,-2 0.36523,0.78125 C 9.3829,10.615837 9,11.229686 9,12 c 0,1.206069 0.97819,2 2,2 1.02183,0 1.9375,-0.856431 1.9375,-2.0625 C 12.9375,10.731431 12.02183,10 11,10 c -0.15008,0 -0.29226,0.02946 -0.4375,0.0625 L 10,8.75 V 7.800781 Z M 6.40625,9.5 H 8.59961 L 7.40625,10.75 H 6.5625 C 6.42239,10.56342 6.25804,10.401358 6.0625,10.28125 Z M 5,11 c 0.6351,0 1,0.549217 1,1 0,0.450783 -0.3649,1 -1,1 -0.6351,0 -1,-0.549217 -1,-1 0,-0.450783 0.3649,-1 1,-1 z m 6,0 c 0.6351,0 1,0.549217 1,1 0,0.450783 -0.3649,1 -1,1 -0.63509,0 -1,-0.549217 -1,-1 0,-0.450783 0.36491,-1 1,-1 z" />
</svg>
